!!!!SEGMENT: pl-wn--mus-8169_zelenski-wladyslaw--veni-creator.krn
!!!cenid: 18xx:3790
!!!COM: Żeleński, Władysław
!!!COM-rismID: pe41024455
!!!CDT: 1837/07/06-1921/01/23
!!!CNT: Polish
!!!OTL: Veni creator
!!!PDT: 1877
!!!AGN:
!!!SMS-siglum: PL-Wn
!!!SMS-shelfmark: Mus.8169
!!!SMS-shelfwork: W
!!!SMS-variant:
!!!SMS-altvar:
!!!NIFC-rismSourceID:
!!!NIFC-islandoraID:
!!!URL-pdf-islandora:
!!!URL-scan: https://polona.pl/item/veni-creator-na-glosy-mezkie,NDU5Mzc1NDY/0 @EN{Scan on Polona} @PL{Skany w portalu Polona}
!!!ONB-nifc:
!!!AIN: 1 bass 1 tenor
!!!key:
**kern	**dynam	**kern	**text	**dynam
*group2	*	*group1	*	*
*part2	*part2	*part1	*part1	*part1
*staff2	*	*staff1	*staff1	*
*ICvox	*	*ICvox	*	*
*Ibass	*	*Itenor	*	*
*I"Baſ 1/2.	*	*I"T.I T.II	*	*
*I'	*	*I'	*	*
*	*	*ITrd8c12	*	*
*clefF4	*	*clefG2	*	*
*k[]	*	*k[]	*	*
*C:	*	*C:	*	*
*M4/4	*	*M4/4	*	*
*met(c)	*below	*met(c)	*	*below
*2\right	*	*2\right	*	*
=1	=1	=1	=1	=1
*^	*	*^	*	*
!	!	!LO:DY:rj	!LO:TX:a:t=Lento.:rj:i	!	!	!LO:DY:rj
4G/	4C\	p	4e/	4c\	Ve-	p
!	!	!	!	!	!	!LO:HP:rj:a
8E/	8C\	<	8c/	8G\	-ni	<
8E/	8C\	.	8c/	8G\	Cre-	.
4E/	4C\	.	4c/	4G\	-a-	.
.	.	.	.	.	.	[
4E/	4C\	[	4c/	4G\	-tor	.
=2	=2	=2	=2	=2	=2	=2
!	!	!LO:DY:rj:a:rj	!	!	!	!LO:DY:rj:a
4.E/	4.C\	sfz	4.c/	4.G#X\	spi-	sfz
8F/	8F\	.	8A/	8A\	-ri-	.
4F/	4F\	.	4A/	4A\	-tus,	.
!	!	!LO:DY:rj	!	!	!	!LO:DY:rj:a
[<4G/	4E\	p	[<4A/	4A\	men-	p
=3	=3	=3	=3	=3	=3	=3
4G/]	4D\	<	4A/]	4A\	.	.
!	!	!	!	!	!	!LO:HP:rj:a
8F/	8D\	.	8B/	8A\	-tes	<
8F/	8C\	.	8c/	8A\	tu-	.
4F/	4BB\	[[	4d/	4G\	-o-	.
.	.	.	.	.	.	[
4F#X/	4AA\	.	4d/	4c\	-rum	.
=4	=4	=4	=4	=4	=4	=4
8G/L	4.GG\	.	4.d/	4.c\	vi-	.
8D/	.	>	.	.	.	.
8E/J	.	.	.	.	.	.
!	!	!	!	!	!	!LO:HP:rj:a
8F#X/	8GG\	.	8d/	8c\	-si-	>
2G\	2GG\	]	2d/	2B\	-ta,	.
.	.	.	.	.	.	]
=5	=5	=5	=5	=5	=5	=5
!!linebreak:original
!	!	!LO:DY:rj	!	!	!	!LO:DY:rj
4G/	4C\	p	4e/	4c\	Im-	p
!	!	!LO:HP:b	!	!	!	!
8G#X/	8BB\	<	8e/	8d\	-ple	.
8G#/	8BB\	.	8e/	8d\	su-	<
4A/	4AA\	.	4e/	4c\	-per-	.
4A/	4D\	.	4f#X/	4c\	-na	.
=6	=6	=6	=6	=6	=6	=6
4Gn/	4E\	.	4.g/	4B\	gra-	.
4A/	4AA\	.	.	4c\	-ti-	.
.	.	.	8fn/	.	.	.
4G,/	4BB\	.	4e,/	4B\	-a,	.
(4F#X/	[4BB\	.	(4d#X/	(4A\	quae	.
!	!	!LO:HP:a	!	!	!	!LO:HP:a
.	.	>	.	.	.	>
=7	=7	=7	=7	=7	=7	=7
4Fn/)	4BB\]	]	4dn/)	4G#X\)	.	]
!	!	!LO:DY:rj	!	!	!	!LO:DY:rj:t=p&colon;
8F/	8C\	p	8c/	8G#\	tu	p
8F/	8D\	.	8B/	8G#\	cre-	.
4E/	4C\	.	4e/	4A\	-a-	.
4E/	4AA\	.	4c/	4A\	-sti	.
=8	=8	=8	=8	=8	=8	=8
*	*	*	*	*^	*	*
!	!	!LO:DY:rj:t=pp.	!	!	!	!	!LO:DY:rj:a:t=p.p.
4E/	4.BB\	pp	4.B/	4.A\	4.B\	pec-	pp
8D#X/	.	.	.	.	.	.	.
8D#/	8BB\	.	8B/	8A\	8ryy	-to-	.
4E/	4E\	.	4B/	4G#X\	4ryy	-ra,	.
4r	4ryy	.	4r	4ryy	4ryy	.	.
*	*	*	*	*v	*v	*	*
=9	=9	=9	=9	=9	=9	=9
!!linebreak:original
!	!	!LO:DY:rj	!	!	!	!LO:DY:rj
2E/	(>4C\	p	(4.e/	(>4G\	Ve-	p
.	4BB\)	.	.	4G#X\)	.	.
.	.	.	8d/)	.	.	.
!	!	!	!	!	!	!LO:HP:a
8E/	8AA\	<	8c/	8A\	-ni	<
8E/	8AA\	.	8c/	8A\	Cre-	.
8E/	8GG\	.	8c/	8B-X\	-a-	.
8E/	8GG\	[	8c/	8B-\	-tor	[
=10	=10	=10	=10	=10	=10	=10
!	!	!	!	!	!	!LO:DY:rj:a
4.F/	4.FF\	.	4.c/	4.A\	spi-	.
!	!	!	!	!	!	!LO:HP:a
.	.	>	.	.	.	>
8F/	8F\	.	8A/	8A\	-ri-	.
4F/	4F\	.	4A/	4A\	-tus,	.
[4G/	(4E-X\	]	[<4A/	4A\	Men-	]
=11	=11	=11	=11	=11	=11	=11
4G/]	4D\)	]	4A/]	4A\	.	]
!	!	!LO:HP:t=cresc:ext=ud	!	!	!	!LO:HP:rj:a:t=cresc:ext=ud
.	.	<	.	.	.	<
8F/	8D\	.	8B/	8A-X\	-tes	.
8F/	8C\	.	8c/	8A-\	tu-	.
4F/	4BB\	.	4d/	4G\	-o-	.
4F/	4AA\	.	4d/	4c\	-rum	.
=12	=12	=12	=12	=12	=12	=12
(<4F/	4.GG\	.	4.d/	4B\	vi-	.
8F#X/)	.	.	.	8A\	.	.
8F#/	8GG\	.	8c/	8A\	-si-	.
8G/	8GG\	.	8B/	8G\	-ta,	.
8G/	8Fn\	.	8d/	8B\	Im-	.
8G/	8E\	.	8e/	8B\	-ple	.
8G/	8D\	[[	8f/	8B\	su-	[[
=13	=13	=13	=13	=13	=13	=13
!!linebreak:original
!	!	!	!LO:TX:a:t=espress. molto.:i	!	!	!
4.G/	4.C\	.	4.e/	(>4B\	-per-	.
.	.	.	.	8A\)	.	.
8G/	8C\	.	8e/	8A\	-na	.
(4G/	4.C#X\	.	(<4e/	4A\	gra-	.
8E/)	.	.	8g/)	8B-X\	.	.
8E/	8C#\	.	8g/	8B-\	-ti-	.
=14	=14	=14	=14	=14	=14	=14
4F#X/	4D\	.	4f#X/	4A\	-a,	.
8G/L	8E\L	.	8e/L	4c\	quae	.
8A/J	8F#X\J	.	8d/J	.	.	.
4G/	4G\	.	4d/	4B\	tu	.
4G/	4D\	.	4fn/	4B\	cre-	.
=15	=15	=15	=15	=15	=15	=15
2.G/	4C\	.	(2e/	4B\	-a-	.
!	!	!	!	!	!	!LO:HP:a
.	4C#X\	>	.	2A\	.	>
.	4D\	.	4A/)	.	.	.
4F#X/	4D\	.	4c/	4A\	-sti	.
=16	=16	=16	=16	=16	=16	=16
!	!	!	!	!	!	!LO:DY:a:t=p.p.
(<4D/	4.GG\	.	4.c/	4.F#X\	pec-	pp
8E-X/)	.	.	.	.	.	.
8E-/	8GG\	.	8c/	8F#\	-to-	.
!	!	!	!	!LO:ART:color=blue	!	!
4D/	4GG\	.	4B,/	4G,>\	-ra,	.
!LO:TX:t=Ø:b:rj:color=blue	!	!LO:DY:t=p	!LO:TX:a:t=Solo:color=blue	!	!	!LO:DY:a:t=un Poco\np
4G/	4G\	p	4d/	4B\	qui	p
=17	=17	=17	=17	=17	=17	=17
!!pagebreak:original
!	!	!	!LO:TX:a:t=Solo.:rj:note=podkreślone na niebiesko	!	!	!
!LO:TX:b:t=Solo.:rj	!	!	!LO:TX:a:t=piu mosso.:note=podkreślone na niebiesko	!	!	!
4.G/	4.E-X\	.	4.e-X/	4.B-X\	di-	.
8G/	8E-\	.	8B-X/	8B-X\	-ce-	.
4G/	4E-\	.	4B-/	4B-\	-ris	.
8G/	8E-\	.	8e-/	8B-\	Pa-	.
8G/	8E-\	.	8e-/	8B-\	-ra-	.
=18	=18	=18	=18	=18	=18	=18
4F/	4BB-X\	.	4d/	4B-X\	-di-	.
4F/	4BB-\	.	4d/	4B-\	-tus,	.
4r	4ryy	.	4r	4ryy	.	.
4B-X/	4B-\	.	4d/	4d\	Al-	.
=19	=19	=19	=19	=19	=19	=19
!	!	!	!	!	!	!LO:HP:aLO:DY:rj:a
4.A/	4.F\	.	4.f/	4.c\	-tis-	<
8A/	8F\	.	8c/	8c\	-si-	.
4A/	4F\	.	4c/	4c\	-mus	.
8A/	8F\	.	8f/	8c\	do-	[
8A/	8F\	.	8f/	8c\	-num	.
=20	=20	=20	=20	=20	=20	=20
4G/	4C\	.	4e/	4c\	De-	.
4G/	4C\	.	4e/	4c\	-i,	.
4r	4ryy	.	4r	4r	.	.
!LO:TX:b:t=Tutti:note=podkreślone na niebiesko	!	!	!LO:TX:a:t=Tutti:notepodkreślone na niebiesko	!	!	!
4c/	4c\	.	4e/	4e\	Fons	.
=21	=21	=21	=21	=21	=21	=21
!!linebreak:original
4c/	4G\	.	4g/	4d\	vi-	.
.	.	<	.	.	.	.
!	!	!	!	!	!	!LO:HP:t=cresc&colon;:a
4B/	4G\	.	4d/	4d\	-vus	<
4B-X/	4G\	.	4d/	4d\	ig-	.
4B-/	4C\	.	4e/	4c\	-nis	.
=22	=22	=22	=22	=22	=22	=22
!	!	!LO:DY:rj:t=f.	!	!	!	!LO:DY:a:rj:t=f&colon;
8.B-X/	8.F\	f	8.f/	8.c\	Cha-	f
16A/	16F\	.	16c/	16c\	-ri-	.
4A,/	4F\	.	4c,/	4c\	-tas,	.
!	!	!LO:DY:rj	!	!	!	!
8A-X/	8F\	p	8c/	8c\	Et	.
8A-/	8F\	.	8c/	8c\	Spi-	.
8A-/	8BB-X\	.	8d/	8B-X\	-ri-	.
8A-/	8BB-\	.	8d/	8B-\	-tu-	.
=23	=23	=23	=23	=23	=23	=23
4G/	4C\	.	4e-X/	4B-X\	-a-	.
!	!	!	!	!	!	!LO:HP:a
4G/	4D\	.	4d/	4B-\	-lis	<
(4G/	8E-X\L	.	(4c/	(>4B-\	un-	.
.	8En\J	.	.	.	.	.
!	!	!LO:HP:a	!	!	!	!
.	.	<	.	.	.	.
8F/)	8F\	.	8d/)	8A\)	.	.
8F/	8F\	[	8e-X/	8A\	-cti-	[
=24	=24	=24	=24	=24	=24	=24
!LO:ART:color=blue	!	!	!LO:ART:color=blue	!	!	!LO:HP:a
2.F,/	2.BB-X\	.	2.d,/	2.B-X\	-o,	>
!LO:TX:t=Ø:a:rj:color=blue	!	!	!LO:TX:a:t=Solo:note=podkreślone na niebiesko	!	!	!
4F/	4BB-\	.	4d/	4B-\	Tu	]
!LO:TX:a:t=Solo:rj:note=podkreślone na niebiesko	!	!	!	!	!	!
=25	=25	=25	=25	=25	=25	=25
!!linebreak:original
4.G/	4.E-X\	.	4.e-X/	4.B-X\	sep-	.
8G/	8E-\	.	8B-X/	8B-X\	-ti	.
4G/	4E-\	.	4B-/	4B-\	for-	.
4G-X/	4E-\	.	4e-/	4B-\	-mis	.
=26	=26	=26	=26	=26	=26	=26
8.F/	8.BB-X\	.	8.d/	8.B-X\	nu-	.
16F/	16BB-\	.	16d/	16B-\	-me-	.
4F/	4BB-\	.	4d/	4B-\	-ri	.
4B-X/	4B-\	.	4d-X/	4B-\	Di-	.
4c-X/	4A-X\	.	4d-/	4d-X\	-gi-	.
=27	=27	=27	=27	=27	=27	=27
!	!	!	!	!	!	!LO:HP:a
4.B-X/	4.G-X\	<	4.g-X/	4.d-X\	-tus	<
8B-/	8G-\	.	8d-X/	8d-X\	pa-	.
4B-/	4G-\	.	4d-/	4d-\	-ter-	.
4B--/	4G-\	[	4g-/	4d-\	-nae	[
=28	=28	=28	=28	=28	=28	=28
8.A-X/	8.D-X\	.	8.f/	8.d-X\	dex-	.
16A-/	16D-\	.	16f/	16d-\	-te-	.
4A-/	4D-\	.	4f/	4d-\	-rae,	.
4r	4ryy	.	4r	4ryy	.	.
!LO:TX:b:t=Tutti	!LO:TX:a:t=mocno_:note=ołówkiem	!LO:DY:rj:t=p&colon;	!LO:TX:a:t=Tutti.:note=podkreślone na niebiesko	!	!	!LO:DY:rj:a
4A-/	4D-\	p	4f/	8d-\L	Tu	p
.	.	.	.	8cn\J	.	.
=29	=29	=29	=29	=29	=29	=29
!!linebreak:original
!	!	!LO:HP:b:t=cresc.:ext=ud	!	!	!	!LO:HP:a:t=crescen.:ext=ud
4G/	4Dn\	<	4f/	4B\	ri-	<
8G/	8D\	.	8f/	8B\	-te	.
8G/	8D\	.	8f/	8B\	pro-	.
4G/	4E\	.	4e/	4c\	-mis-	.
4G/	4E\	.	4e/	4c\	-sum	.
=30	=30	=30	=30	=30	=30	=30
4G/	4F\	.	4e/	4B\	Pat-	.
4G/	4F\	.	4d/	4B\	-ris,	.
4r	4ryy	.	4r	4ryy	.	.
4G/	4F\	.	4d/	4B\	Ser-	.
=31	=31	=31	=31	=31	=31	=31
4.A/	4.E\	.	4.g/	4.c#X\	-mo-	.
8A/	8E\	.	8g/	8c#\	-ne	.
4A/	4F\	.	4f/	4d\	di-	.
4A/	4F\	.	4f/	4d\	-tans	.
=32	=32	=32	=32	=32	=32	=32
4.A/	4.G\	.	4.f/	4.c#X\	gut-	.
8A/	8G\	.	8e/	8c#\	-tu-	.
2A/	2G\	.	2e/	2c#\	-ra,	.
=33	=33	=33	=33	=33	=33	=33
4A/	4F#X\	.	4e/	4cn\	vi-	.
8A/	8F#\	.	8d/	8c\	-te	.
8A/	8F#\	.	8d/	8c\	pro-	.
4F#X/	4D\	.	4e/	4c\	-mis-	.
4F#/	4D\	[[	4d/	4c\	-sum	[[
=34	=34	=34	=34	=34	=34	=34
!!pagebreak:original
!	!	!LO:DY:rj:t=ff.	!LO:TX:a:t=ritard.	!	!	!LO:DY:rj:a:t=ff.
(2D/ 2G	1GG	ff	(2f/	(>2.B\	Pa-	ff
4F/	.	.	4d/	.	.	.
4E-X/)	.	.	4c/)	4A\)	.	.
!	!	!	!	!	!	!LO:HP:a
.	.	.	.	.	.	>
=35	=35	=35	=35	=35	=35	=35
!	!	!	!LO:ART:color=blue	!	!	!
2.D/	2.GG\	.	2.B/;	2.G\	tris	]
!	!	!LO:DY:b:t=p.&colon;	!	!	!	!LO:DY:a:t=p&colon;
4G/	4G\	p	4G/	4G\	A-	] p
=36	=36	=36	=36	=36	=36	=36
!	!	!	!LO:TX:a:t=tempo 1mo:i:note=podkreślone na niebiesko	!	!	!
2E/	(>4C\	.	(4.e/	(>4G\	-scen-	.
.	4BB\)	.	.	4G#X\)	.	.
!	!	!	!	!	!	!LO:HP:a
.	.	.	8d/)	.	.	<
4E/	4AA\	<	4c/	4A\	-de	.
8E/	8GG\	.	8c/	8B-X\	lu-	.
8E/	8GG\	[	8c/	8B-\	-men	[
=37	=37	=37	=37	=37	=37	=37
!	!	!	!	!	!	!LO:HP:a
4.F/	4.FF\	.	4.c/	4.A\	cor-	>
8F/	8F\	>	8A/	8A\	-di-	.
4F/	4F\	.	4A/	4A\	-bus,	.
4G/	4E\	]	4A/	4A\	In	]
=38	=38	=38	=38	=38	=38	=38
!!linebreak:original
!	!	!	!	!	!	!LO:HP:a:t=cresc.:ext=ud
4G/	4D\	.	4A/	4A\	fun-	] <
!	!	!LO:HP:t=cresc:ext=ud	!	!	!	!
.	.	<	.	.	.	.
8F/	8D\	.	8B/	8A\	-de	.
8F/	8C\	.	8c/	8A\	a-	.
4F/	4BB\	.	4d/	4G\	-mo-	.
4F#X/	4AA\	[[	4d/	4c\	-rem	.
=39	=39	=39	=39	=39	=39	=39
8G/L	4.GG\	.	4.d/	4.c\	cor-	.
8D/	.	.	.	.	.	.
8E/J	.	.	.	.	.	[
8F#X/	8GG\	.	8d/	8c\	-di-	.
4G/	4GG\	.	4d/	4B\	-bus	.
4Fn/	4GG\	.	4d#X/	4B\	In	.
=40	=40	=40	=40	=40	=40	=40
!	!	!	!LO:TX:a:t=express.	!	!	!
(4E/	(>4C\	.	4.e/	(>4c\	fir-	.
8F#X/)	8BB\)	.	.	8d\)	.	.
8G#X/	8BB\	.	8e/	8d\	-ma	.
4A/	4AA\	.	4e/	4c\	nos-	.
4A/	4D\	.	4f#X/	4c\	-tri	.
=41	=41	=41	=41	=41	=41	=41
(4G/	(>4E\	.	4.g/	(>4B\	cor-	.
8A/)	8AA\)	.	.	8c\)	.	.
8A/	8AA\	.	8fn/	8c\	-po-	.
8G/	8BB\	.	8e/	8B\	-ris	.
.	.	>	.	.	.	.
8G/	8C#X\	.	8e/	8B-X\	Vir-	.
8G/	8C#\	.	8e/	8B-\	-tu-	.
8G/	8C#\	.	8e/	8B-\	-te	.
=42	=42	=42	=42	=42	=42	=42
!!linebreak:original
!	!	!LO:DY:rj	!	!	!	!LO:DY:rj:a
4F#X/	4D\	p	4e/	4A\	fir-	p
8F#/	8D\	.	8d/	8c\	-mans	.
!	!	!	!	!	!	!LO:HP:a
8F#/	8D\	.	8d/	8c\	per-	<
(4G/	2GG\	.	(4.e/	2B\	-pe-	[
!	!	!	!	!	!	!LO:HP:a
4Fn/)	.	.	.	.	.	>
.	.	.	8d/)	.	.	]]
=43	=43	=43	=43	=43	=43	=43
!	!	!	!	!	!	!LO:HP:a
2E/	2C\	<	2c/	2G\	ti,	<
(4F/	4F\	[ >	2d/	2A\	A-	[
4E/)	8E\L	.	.	.	.	.
.	8C\J	]	.	.	.	.
=44	=44	=44	=44	=44	=44	=44
!	!	!	!	!	!	!LO:HP:a
2A/	2AA\	.	2e,/	2c\	-men,	[ >
4A/	(4A\	.	2e/	[>2c\	a-	]
8G/L	8G\L	.	.	.	.	.
8E/J	8E\J	.	.	.	.	.
=45	=45	=45	=45	=45	=45	=45
!	!	!	!	!	!	!LO:HP:a
2B-X/	1C)	.	(2.g/	1c]	.	] <
4A/	.	.	.	.	.	[
4A-X/	.	.	4f/)	.	.	.
=46	=46	=46	=46	=46	=46	=46
!LO:ART:color=blue	!	!	!	!	!	!
1G;	1C	.	1e	1c	-men.	.
*v	*v	*	*	*	*	*
*	*	*v	*v	*	*
!LO:TX:b:t=Finis.	!	!	!	!
==	==	==	==	==
*-	*-	*-	*-	*-
!!!system-decoration: s1,s2
!!!RDF**dynam: p = "p."
!!!RDF**dynam: > = dimin.
!!!RDF**kern: > = above
!!!RDF**kern: < = below
!!!ENC: Berenika Jozajtis
!!!END: 2022-03-09
